src/asset/defaultUser.svg

<svg width="33" height="33" fill="none" xmlns="http://www.w3.org/2000/svg"><path d="M22.6875 12.375c0 1.641-.6519 3.2148-1.8123 4.3752-1.1604 1.1604-2.7342 1.8123-4.3752 1.8123-1.641 0-3.2148-.6519-4.3752-1.8123-1.1604-1.1604-1.8123-2.7342-1.8123-4.3752 0-1.641.6519-3.21484 1.8123-4.37522C13.2852 6.8394 14.859 6.1875 16.5 6.1875c1.641 0 3.2148.6519 4.3752 1.81228 1.1604 1.16038 1.8123 2.73422 1.8123 4.37522z" fill="#868686"/><path fill-rule="evenodd" clip-rule="evenodd" d="M0 16.5c0-4.3761 1.73839-8.57291 4.83274-11.66726C7.92709 1.73839 12.1239 0 16.5 0c4.3761 0 8.5729 1.73839 11.6673 4.83274C31.2616 7.92709 33 12.1239 33 16.5c0 4.3761-1.7384 8.5729-4.8327 11.6673C25.0729 31.2616 20.8761 33 16.5 33c-4.3761 0-8.57291-1.7384-11.66726-4.8327C1.73839 25.0729 0 20.8761 0 16.5zM16.5 2.0625c-2.7188.00014-5.3824.768-7.68404 2.21518-2.30168 1.44719-4.14794 3.51488-5.32628 5.96512-1.17835 2.4502-1.64088 5.1833-1.33437 7.8848.30651 2.7015 1.36961 5.2616 3.06694 7.3855C6.68663 23.1536 9.91031 20.625 16.5 20.625c6.5897 0 9.8113 2.5266 11.2778 4.8881 1.6973-2.1239 2.7604-4.684 3.0669-7.3855.3065-2.7015-.156-5.4346-1.3344-7.8848-1.1783-2.45024-3.0246-4.51793-5.3263-5.96512C21.8824 2.8305 19.2188 2.06264 16.5 2.0625z" fill="#868686"/></svg>

<svg width="33" height="33" viewBox="0 0 33 33" fill="none" xmlns="http://www.w3.org/2000/svg">
<path d="M22.6875 12.375C22.6875 14.016 22.0356 15.5898 20.8752 16.7502C19.7148 17.9106 18.141 18.5625 16.5 18.5625C14.859 18.5625 13.2852 17.9106 12.1248 16.7502C10.9644 15.5898 10.3125 14.016 10.3125 12.375C10.3125 10.734 10.9644 9.16016 12.1248 7.99978C13.2852 6.8394 14.859 6.1875 16.5 6.1875C18.141 6.1875 19.7148 6.8394 20.8752 7.99978C22.0356 9.16016 22.6875 10.734 22.6875 12.375Z" fill="#868686"/>
<path fill-rule="evenodd" clip-rule="evenodd" d="M0 16.5C0 12.1239 1.73839 7.92709 4.83274 4.83274C7.92709 1.73839 12.1239 0 16.5 0C20.8761 0 25.0729 1.73839 28.1673 4.83274C31.2616 7.92709 33 12.1239 33 16.5C33 20.8761 31.2616 25.0729 28.1673 28.1673C25.0729 31.2616 20.8761 33 16.5 33C12.1239 33 7.92709 31.2616 4.83274 28.1673C1.73839 25.0729 0 20.8761 0 16.5ZM16.5 2.0625C13.7812 2.06264 11.1176 2.8305 8.81596 4.27768C6.51428 5.72487 4.66802 7.79256 3.48968 10.2428C2.31133 12.693 1.8488 15.4261 2.15531 18.1276C2.46182 20.8291 3.52492 23.3892 5.22225 25.5131C6.68663 23.1536 9.91031 20.625 16.5 20.625C23.0897 20.625 26.3113 23.1516 27.7778 25.5131C29.4751 23.3892 30.5382 20.8291 30.8447 18.1276C31.1512 15.4261 30.6887 12.693 29.5103 10.2428C28.332 7.79256 26.4857 5.72487 24.184 4.27768C21.8824 2.8305 19.2188 2.06264 16.5 2.0625Z" fill="#868686"/>
</svg>
